dist/assets/images/tweet-embed.svg

<?xml version="1.0" encoding="utf-8"?>
<!-- Generator: Adobe Illustrator 16.2.1, SVG Export Plug-In . SVG Version: 6.00 Build 0)  -->
<!DOCTYPE svg PUBLIC "-//W3C//DTD SVG 1.1//EN" "http://www.w3.org/Graphics/SVG/1.1/DTD/svg11.dtd">
<svg version="1.1" id="Layer_1" xmlns="http://www.w3.org/2000/svg" xmlns:xlink="http://www.w3.org/1999/xlink" x="0px" y="0px"
   width="512px" height="512px" viewBox="0 0 512 512" enable-background="new 0 0 512 512" xml:space="preserve">
<path d="M256,0C114.609,0,0,114.609,0,256c0,141.392,114.609,256,256,256c141.392,0,256-114.608,256-256
  C512,114.609,397.392,0,256,0z M256,472c-119.297,0-216-96.702-216-216c0-119.297,96.703-216,216-216c119.298,0,216,96.703,216,216
  C472,375.298,375.298,472,256,472z" fill="#666366"/>
<path d="M384,170.922c-4.313,2.562-17.248,7.671-29.313,8.953c7.736-4.491,19.188-19.203,22.016-30.89
  c-7.435,5.109-24.516,12.562-32.95,12.562c0,0,0,0.023,0.016,0.039C334.141,150.75,320.608,144,305.577,144
  c-29.154,0-52.81,25.461-52.81,56.875c0,4.36,0.481,8.595,1.357,12.672h-0.017c-39.562-1.094-85.811-22.446-111.874-59
  c-16,29.852-2.156,63.046,16.015,75.141c-6.203,0.516-17.671-0.766-23.061-6.407c-0.375,19.797,8.484,46.048,40.735,55.563
  c-6.221,3.61-17.19,2.579-21.984,1.781c1.687,16.75,23.437,38.623,47.202,38.623c-8.47,10.534-37.373,29.706-73.141,23.596
  C152.298,358.782,180.625,368,210.608,368c85.205,0,151.376-74.359,147.814-166.093c0-0.11-0.031-0.219-0.031-0.313
  c0-0.25,0.031-0.5,0.031-0.719c0-0.281-0.031-0.562-0.031-0.859C366.141,194.328,376.546,184.234,384,170.922z" fill="#666366"/>
</svg>

<?xml version="1.0" encoding="UTF-8" standalone="no"?>
<svg width="512px" height="512px" viewBox="0 0 512 512" version="1.1" xmlns="http://www.w3.org/2000/svg" xmlns:xlink="http://www.w3.org/1999/xlink">
    <!-- Generator: Sketch 3.8.3 (29802) - http://www.bohemiancoding.com/sketch -->
    <title>Slice 1</title>
    <desc>Created with Sketch.</desc>
    <defs></defs>
    <g id="Page-1" stroke="none" stroke-width="1" fill="none" fill-rule="evenodd">
        <g id="tweet-embed" fill="#2F2F2F">
            <path d="M256,0 C114.609,0 0,114.609 0,256 C0,397.392 114.609,512 256,512 C397.392,512 512,397.392 512,256 C512,114.609 397.392,0 256,0 L256,0 Z M256,472 C136.703,472 40,375.298 40,256 C40,136.703 136.703,40 256,40 C375.298,40 472,136.703 472,256 C472,375.298 375.298,472 256,472 L256,472 Z" id="Shape"></path>
            <path d="M354.687,179.875 C362.423,175.384 373.875,160.672 376.703,148.985 C369.268,154.094 352.187,161.547 343.753,161.547 C334.141,150.75 320.608,144 305.577,144 C276.423,144 252.767,169.461 252.767,200.875 C252.767,205.235 253.248,209.47 254.124,213.547 C214.545,212.453 168.296,191.101 142.233,154.547 C126.233,184.399 140.077,217.593 158.248,229.688 C152.045,230.204 140.577,228.922 135.187,223.281 C134.812,243.078 143.671,269.329 175.922,278.844 C169.701,282.454 158.732,281.423 153.938,280.625 C155.625,297.375 177.375,319.248 201.14,319.248 C192.67,329.782 163.767,348.954 127.999,342.844 C152.298,358.782 180.625,368 210.608,368 C295.813,368 361.984,293.641 358.422,201.907 C358.391,201.344 358.422,201.094 358.422,200.875 C358.422,200.594 358.391,200.313 358.391,200.016 C366.141,194.328 376.546,184.234 384,170.922 C379.687,173.484 366.752,178.593 354.687,179.875 Z" id="Shape"></path>
        </g>
    </g>
</svg>
